X:2
T:Captain Byng
C:Traditional
N:Play twice through
N:The Cashel Set, figure 2, tune 2 of 2
Z:Gordon Turnbull, Edinburgh
Z:gturnbull@theflow.org.uk
Z:http://www.theflow.org.uk
R:Polka
M:2/4
L:1/8
K:G
g2 gd | BG GA/B/ | cA a>g | fd ef |\
g2 gd | BG GA/B/ | cA dF | AG G2 :||
B/A/G dG | BG GA/B/ | cA eA | cA A>c |\
B/A/G dG | BG GA/B/ | cA dF | AG G2 :||
